public/assets/img/message-dark.svg

<svg width="20" height="20" viewBox="0 0 20 20" fill="none" xmlns="http://www.w3.org/2000/svg">
<g id="message">
<path id="shape" fill-rule="evenodd" clip-rule="evenodd" d="M9.55908 15.6836C8.06885 16.75 6.12061 17.6592 5.15674 17.6592C4.24756 17.6592 3.87842 16.8184 4.37061 16.1621C4.66455 15.7793 5.13623 15.0479 5.4165 14.5352C3.29736 13.4551 1.93018 11.4316 1.93018 9.18945C1.93018 5.58008 5.51904 2.6748 9.99658 2.6748C14.481 2.6748 18.0698 5.58008 18.0698 9.18945C18.0698 12.9082 14.4331 15.7383 9.55908 15.6836ZM7.0708 14.3848C6.79736 14.8838 6.29834 15.5332 5.98389 15.9297C5.90869 16.0254 5.94971 16.0801 6.05908 16.0391C6.65381 15.7998 7.89111 15.0068 8.70459 14.3984C8.98486 14.1729 9.20361 14.0908 9.49756 14.0977C9.61931 14.0977 9.72752 14.0999 9.81961 14.1018C9.8878 14.1033 9.94714 14.1045 9.99658 14.1045C13.5991 14.1045 16.4702 11.8965 16.4702 9.18945C16.4702 6.47559 13.5991 4.26758 9.99658 4.26758C6.40088 4.26758 3.52979 6.47559 3.52979 9.18945C3.52979 10.9395 4.71924 12.4775 6.74951 13.4414C7.18701 13.6465 7.28271 13.9883 7.0708 14.3848Z" fill="#E0E0FF" fill-opacity="0.4"/>
</g>
</svg>

<svg width="20" height="20" fill="none" xmlns="http://www.w3.org/2000/svg"><path fill-rule="evenodd" clip-rule="evenodd" d="M9.56 15.684c-1.491 1.066-3.44 1.975-4.403 1.975-.91 0-1.279-.84-.786-1.497.294-.383.765-1.114 1.045-1.627-2.119-1.08-3.486-3.103-3.486-5.346 0-3.609 3.589-6.514 8.067-6.514 4.484 0 8.073 2.905 8.073 6.514 0 3.72-3.637 6.55-8.51 6.495Zm-2.49-1.3c-.273.5-.772 1.15-1.086 1.546-.075.095-.034.15.075.11.595-.24 1.832-1.033 2.646-1.642.28-.225.499-.307.793-.3a15.111 15.111 0 0 1 .499.006c3.602 0 6.473-2.207 6.473-4.915 0-2.713-2.87-4.921-6.473-4.921-3.596 0-6.467 2.208-6.467 4.921 0 1.75 1.19 3.288 3.22 4.252.437.205.533.547.32.944Z" fill="#E0E0FF" fill-opacity=".4"/></svg>
